svgs/thin/coin-vertical.svg

<svg xmlns="http://www.w3.org/2000/svg" viewBox="0 0 384 512"><!--! Font Awesome Pro 6.1.1 by @fontawesome - https://fontawesome.com License - https://fontawesome.com/license (Commercial License) Copyright 2022 Fonticons, Inc. --><path d="M206.7 122.6C222.5 157.1 232 204.3 232 256C232 307.7 222.5 354.9 206.7 389.4C191.2 423.3 168.2 448 140 448C111.8 448 88.78 423.3 73.33 389.4C57.55 354.9 48 307.7 48 256C48 204.3 57.55 157.1 73.33 122.6C88.78 88.72 111.8 64 140 64C168.2 64 191.2 88.72 206.7 122.6V122.6zM87.88 382.8C102.8 415.5 121.9 432 140 432C158.1 432 177.2 415.5 192.1 382.8C206.7 350.7 216 305.9 216 256C216 206.1 206.7 161.2 192.1 129.2C177.2 96.47 158.1 80 140 80C121.9 80 102.8 96.47 87.88 129.2C73.26 161.2 64 206.1 64 256C64 305.9 73.26 350.7 87.88 382.8zM144 512C64.47 512 0 397.4 0 256C0 114.6 64.47 0 144 0H256C326.7 0 384 114.6 384 256C384 397.4 326.7 512 256 512H144zM231.9 82.82C207.1 38.81 175.4 16 144 16C112.6 16 80.88 38.81 56.12 82.82C31.64 126.3 16 187.5 16 256C16 324.5 31.64 385.7 56.12 429.2C80.88 473.2 112.6 496 144 496C175.4 496 207.1 473.2 231.9 429.2C256.4 385.7 272 324.5 272 256C272 187.5 256.4 126.3 231.9 82.82V82.82zM359.1 344C364.7 319.2 367.5 292.2 367.9 264H287.9C287.4 292 284.4 318.9 279.3 344H359.1zM275.6 360C269.8 383.4 261.1 404.9 252.7 424H335C343.7 405.4 351.1 383.8 356.6 360H275.6zM256 496C279.1 496 305.5 477.8 326.8 440H244.1C229.1 464.3 213 483.6 194.2 496H256zM279.3 168C284.4 193.1 287.4 219.1 287.9 248H367.9C367.5 219.8 364.7 192.8 359.1 168H279.3zM275.6 152H356.6C351.1 128.2 343.7 106.6 335 88H252.7C261.1 107.1 269.8 128.6 275.6 152V152zM194.2 16C213 28.44 229.1 47.67 244.1 72H326.8C305.5 34.25 279.1 16 256 16H194.2z"/></svg>

<svg xmlns="http://www.w3.org/2000/svg" viewBox="0 0 384 512"><!--! Font Awesome Pro 6.4.2 by @fontawesome - https://fontawesome.com License - https://fontawesome.com/license (Commercial License) Copyright 2023 Fonticons, Inc. --><path d="M272 256c0-68.5-15.6-129.7-40.1-173.2C207.1 38.8 175.4 16 144 16s-63.1 22.8-87.9 66.8C31.6 126.3 16 187.5 16 256s15.6 129.7 40.1 173.2c24.8 44 56.5 66.8 87.9 66.8s63.1-22.8 87.9-66.8C256.4 385.7 272 324.5 272 256zM144 512C64.5 512 0 397.4 0 256S64.5 0 144 0h16 96c70.7 0 128 114.6 128 256s-57.3 256-128 256H160 144zM279.3 344H360c4.7-24.8 7.5-51.8 8-80h-80c-.5 28-3.5 54.9-8.7 80zm-3.6 16c-5.9 23.4-13.6 44.9-23 64H335c8.7-18.6 16-40.2 21.6-64h-81zM194.2 496H256c24 0 49.5-18.2 70.8-56H244.1c-14.1 24.3-31.1 43.6-49.9 56zM360 168H279.3c5.2 25.1 8.2 52 8.7 80h80c-.4-28.2-3.2-55.2-8-80zm-84.3-16h81c-5.5-23.8-12.8-45.4-21.6-64H252.7c9.3 19.1 17.1 40.6 23 64zM256 16H194.2C213 28.4 230 47.7 244.1 72h82.7C305.5 34.2 280 16 256 16zM64 256c0 49.9 9.3 94.8 23.9 126.8c14.9 32.7 34 49.2 52.1 49.2s37.2-16.5 52.1-49.2c14.6-32 23.9-76.9 23.9-126.8s-9.3-94.8-23.9-126.8C177.2 96.5 158.1 80 140 80s-37.2 16.5-52.1 49.2C73.3 161.2 64 206.1 64 256zM140 64c28.2 0 51.2 24.7 66.7 58.6C222.5 157.1 232 204.3 232 256s-9.5 98.9-25.3 133.4C191.2 423.3 168.2 448 140 448s-51.2-24.7-66.7-58.6C57.5 354.9 48 307.7 48 256s9.5-98.9 25.3-133.4C88.8 88.7 111.8 64 140 64z"/></svg>
